images/github.svg

<svg fill="none" height="41" viewBox="0 0 40 41" width="40" xmlns="http://www.w3.org/2000/svg"><path d="m9.25605 35.5416c1.04385.8014 2.70615 1.3928 5.26245.9552.0045.6742.01 1.3114.0146 1.8458.0054.6384.0096 1.1303.0096 1.364 0 .1699-.0586.3165-.1492.4013-.0714.0669-.231.1597-.5899.0994-7.72673-2.6525-13.3036-10.1373-13.3036-18.9712 0-11.0599 8.74291-20.00563 19.5-20.00563 10.7571 0 19.5 8.94573 19.5 20.00563 0 8.8299-5.5732 16.3153-13.2952 18.9721-.3683.0661-.529-.0277-.5994-.0933-.0899-.0838-.1493-.2314-.1493-.4058 0-.2223.0029-.6122.0068-1.1357.002-.2667.0043-.5682.0066-.8999.0067-.9803.0134-2.2193.0134-3.5914 0-1.4749-.3596-2.6181-.8855-3.4205 1.9782-.3075 3.9964-.9225 5.5912-2.2915 1.8646-1.6004 3.0702-4.159 3.0702-8.2029 0-2.2502-.7427-4.1197-1.9868-5.6093.2789-.8583.7092-2.8876-.3028-5.50111l-.0854-.22043-.2245-.07394-.1564.47491c.1564-.47491.1559-.47507.1554-.47524l-.001-.00033-.0022-.00071-.0048-.00153-.0117-.00351c-.0041-.0012-.0085-.00248-.0134-.00382-.0054-.00148-.0112-.00304-.0175-.00467-.0241-.00619-.055-.01328-.0929-.02033-.0757-.0141-.1789-.02796-.3101-.03423-.2628-.01255-.6356.00552-1.1241.11102-.9435.20374-2.3147.73246-4.1643 1.99162-1.5779-.4278-3.2533-.6404-4.9141-.6478l-.0045.0001c-1.6614.0073-3.3359.2175-4.9121.6452-1.8529-1.258-3.2252-1.78663-4.1688-1.99064-.4886-.10564-.8611-.12396-1.12379-.11165-.13116.00614-.23421.01989-.30991.03391-.03782.00701-.06871.01406-.09278.02022-.01203.00308-.02235.00594-.03096.00846l-.01164.0035-.00486.00153-.00219.0007-.00104.00034c-.0005.00016-.00099.00032.15498.47537l-.15597-.47505-.22509.07391-.08536.22099c-1.00945 2.61351-.57704 4.64521-.29952 5.50321-1.23969 1.4886-1.98867 3.3579-1.98867 5.6093 0 4.0341 1.20387 6.5932 3.06345 8.1983 1.59305 1.375 3.60895 1.9975 5.58365 2.3099-.3415.5273-.6122 1.2013-.7576 2.0162-.5453.222-1.34.4484-2.171.3725-.9266-.0846-1.9508-.5476-2.76164-1.9691l-.00206-.0038-.0124-.022c-.01039-.0183-.02505-.0435-.04396-.0747-.0378-.0623-.09277-.1489-.16479-.2521-.14356-.2056-.35747-.4808-.64118-.7618-.56345-.558-1.4357-1.1704-2.60204-1.2533l-.0145-.001-.01453-.0002-.0064.4999c.0064-.4999.00624-.4999.00607-.4999h-.00039-.0009l-.00234-.0001h-.00682l-.02172.0001c-.01787.0002-.04249.0006-.07238.0017-.05934.0021-.14177.0068-.23486.0174-.16622.0188-.4429.0634-.6692.1954-.11914.0695-.26762.1883-.35047.3828-.08874.2083-.06847.4228.00716.6075.1319.322.46152.6297.92134.9514l.03319.0232.03289.0158c.00039.0003.00088.0005.00148.0008.00406.0022.01275.0069.02568.0144.02584.015.06861.0413.1251.081.11291.0792.28098.2119.47861.4151.39295.404.90953 1.0934 1.33991 2.209l.00153.0045c.00145.0041.0031.0088.00496.014.00293.0082.00637.0176.01035.0281.01301.0346.0318.0818.05723.1395.0508.1153.12842.2731.23976.4559.22247.3651.58217.8336 1.13487 1.258z" fill="#eceded" stroke="#eceded"/></svg>

<svg width="40" height="41" viewBox="0 0 40 41" fill="none" xmlns="http://www.w3.org/2000/svg">
<path d="M9.25605 35.5416C10.2999 36.343 11.9622 36.9344 14.5185 36.4968C14.523 37.171 14.5285 37.8082 14.5331 38.3426C14.5385 38.981 14.5427 39.4729 14.5427 39.7066C14.5427 39.8765 14.4841 40.0231 14.3935 40.1079C14.3221 40.1748 14.1625 40.2676 13.8036 40.2073C6.07687 37.5548 0.5 30.07 0.5 21.2361C0.5 10.1762 9.24291 1.23047 20 1.23047C30.7571 1.23047 39.5 10.1762 39.5 21.2361C39.5 30.066 33.9268 37.5514 26.2048 40.2082C25.8365 40.2743 25.6758 40.1805 25.6054 40.1149C25.5155 40.0311 25.4561 39.8835 25.4561 39.7091C25.4561 39.4868 25.459 39.0969 25.4629 38.5734C25.4649 38.3067 25.4672 38.0052 25.4695 37.6735C25.4762 36.6932 25.4829 35.4542 25.4829 34.0821C25.4829 32.6072 25.1233 31.464 24.5974 30.6616C26.5756 30.3541 28.5938 29.7391 30.1886 28.3701C32.0532 26.7697 33.2588 24.2111 33.2588 20.1672C33.2588 17.917 32.5161 16.0475 31.272 14.5579C31.5509 13.6996 31.9812 11.6703 30.9692 9.05679L30.8838 8.83636L30.6593 8.76242L30.5029 9.23733C30.6593 8.76242 30.6588 8.76226 30.6583 8.76209L30.6573 8.76176L30.6551 8.76105L30.6503 8.75952L30.6386 8.75601C30.6345 8.75481 30.6301 8.75353 30.6252 8.75219C30.6198 8.75071 30.614 8.74915 30.6077 8.74752C30.5836 8.74133 30.5527 8.73424 30.5148 8.72719C30.4391 8.71309 30.3359 8.69923 30.2047 8.69296C29.9419 8.68041 29.5691 8.69848 29.0806 8.80398C28.1371 9.00772 26.7659 9.53644 24.9163 10.7956C23.3384 10.3678 21.663 10.1552 20.0022 10.1478L19.9977 10.1479C18.3363 10.1552 16.6618 10.3654 15.0856 10.7931C13.2327 9.5351 11.8604 9.00647 10.9168 8.80246C10.4282 8.69682 10.0557 8.6785 9.79301 8.69081C9.66185 8.69695 9.5588 8.7107 9.4831 8.72472C9.44528 8.73173 9.41439 8.73878 9.39032 8.74494C9.37829 8.74802 9.36797 8.75088 9.35936 8.7534L9.34772 8.7569L9.34286 8.75843L9.34067 8.75913L9.33963 8.75947C9.33913 8.75963 9.33864 8.75979 9.49461 9.23484L9.33864 8.75979L9.11355 8.8337L9.02819 9.05469C8.01874 11.6682 8.45115 13.6999 8.72867 14.5579C7.48898 16.0465 6.74 17.9158 6.74 20.1672C6.74 24.2013 7.94387 26.7604 9.80345 28.3655C11.3965 29.7405 13.4124 30.363 15.3871 30.6754C15.0456 31.2027 14.7749 31.8767 14.6295 32.6916C14.0842 32.9136 13.2895 33.14 12.4585 33.0641C11.5319 32.9795 10.5077 32.5165 9.69686 31.095L9.6948 31.0912L9.6824 31.0692C9.67201 31.0509 9.65735 31.0257 9.63844 30.9945C9.60064 30.9322 9.54567 30.8456 9.47365 30.7424C9.33009 30.5368 9.11618 30.2616 8.83247 29.9806C8.26902 29.4226 7.39677 28.8102 6.23043 28.7273L6.21593 28.7263L6.2014 28.7261L6.195 29.226C6.2014 28.7261 6.20124 28.7261 6.20107 28.7261L6.20068 28.7261L6.19978 28.7261L6.19744 28.726L6.19062 28.726L6.1689 28.7261C6.15103 28.7263 6.12641 28.7267 6.09652 28.7278C6.03718 28.7299 5.95475 28.7346 5.86166 28.7452C5.69544 28.764 5.41876 28.8086 5.19246 28.9406C5.07332 29.0101 4.92484 29.1289 4.84199 29.3234C4.75325 29.5317 4.77352 29.7462 4.84915 29.9309C4.98105 30.2529 5.31067 30.5606 5.77049 30.8823L5.80368 30.9055L5.83657 30.9213C5.83696 30.9216 5.83745 30.9218 5.83805 30.9221C5.84211 30.9243 5.8508 30.929 5.86373 30.9365C5.88957 30.9515 5.93234 30.9778 5.98883 31.0175C6.10174 31.0967 6.26981 31.2294 6.46744 31.4326C6.86039 31.8366 7.37697 32.526 7.80735 33.6416L7.80888 33.6461C7.81033 33.6502 7.81198 33.6549 7.81384 33.6601C7.81677 33.6683 7.82021 33.6777 7.82419 33.6882C7.8372 33.7228 7.85599 33.77 7.88142 33.8277C7.93222 33.943 8.00984 34.1008 8.12118 34.2836C8.34365 34.6487 8.70335 35.1172 9.25605 35.5416Z" fill="#ECEDED" stroke="#ECEDED"/>
</svg>
